src/icons/svg/message.svg

<?xml version="1.0" encoding="UTF-8"?>
<svg width="40px" height="49px" viewBox="0 0 40 49" version="1.1" xmlns="http://www.w3.org/2000/svg"
>
    <path d="M39.5083202,37.054313 L36.133731,32.1119 C35.9715831,31.8767445 35.8844366,31.5980038 35.8837614,31.312365 L35.8837614,16.5659982 C35.8819234,7.41637664 28.7724947,0 19.9996655,0 C11.2268363,0 4.11740765,7.41821464 4.11740765,16.5678362 L4.11740765,31.312365 C4.1158562,31.5978683 4.02878854,31.8763568 3.86743809,32.1119 L0.491010821,37.054313 C-0.084406912,37.905511 -0.159465181,38.9998187 0.29434362,39.9216111 C0.750170505,40.8406169 1.65814818,41.4159145 2.64883643,41.4159145 L37.3541707,41.4159145 C38.344859,41.4159145 39.2528366,40.8387788 39.7086635,39.9216111 C40.1593732,38.9987759 40.0829843,37.9055035 39.5083202,37.054313 Z M5.21470055,37.2767125 L7.09498637,34.5160191 C7.74564247,33.5749572 8.09118866,32.4574462 8.08751262,31.312365 L8.08751262,16.5659982 C8.08751262,13.2704435 9.34287453,10.1109016 11.5760586,7.78030293 C13.8092426,5.44970426 16.8382857,4.14104004 19.9978275,4.14104004 C23.1573694,4.14104004 26.1864124,5.44970426 28.4195965,7.78030293 C30.6527805,10.1109016 31.9081424,13.2722815 31.9081424,16.5659982 L31.9081424,31.312365 C31.9044664,32.4556081 32.2500126,33.5731192 32.9006687,34.5160191 L34.7809545,37.2767125 L5.21470055,37.2767125 Z"
          id="形状"></path>
    <path d="M24.6314546,48.3213239 L16.6912447,48.3213239 C15.5957898,48.3213239 14.7061922,47.3949661 14.7061922,46.2498849 C14.7061922,45.1066417 15.5957898,44.1784459 16.6912447,44.1784459 L24.6332927,44.1784459 C25.7305856,44.1784459 26.6183452,45.1066417 26.6183452,46.2498849 C26.6165072,47.3949661 25.7287476,48.3213239 24.6314546,48.3213239 Z"
          id="路径"></path>
</svg>

<svg width="40" height="49" xmlns="http://www.w3.org/2000/svg"><path d="M39.508 37.054l-3.374-4.942a1.414 1.414 0 0 1-.25-.8V16.566C35.882 7.416 28.772 0 20 0 11.227 0 4.117 7.418 4.117 16.568v14.744a1.429 1.429 0 0 1-.25.8L.491 37.054a2.862 2.862 0 0 0-.197 2.868c.456.919 1.364 1.494 2.355 1.494h34.705c.99 0 1.899-.577 2.355-1.494a2.872 2.872 0 0 0-.2-2.868zm-34.293.223l1.88-2.761c.65-.941.996-2.059.993-3.204V16.566c0-3.296 1.255-6.455 3.488-8.786 2.233-2.33 5.262-3.639 8.422-3.639 3.16 0 6.188 1.309 8.422 3.64 2.233 2.33 3.488 5.491 3.488 8.785v14.746a5.608 5.608 0 0 0 .993 3.204l1.88 2.76H5.215zM24.631 48.321h-7.94c-1.095 0-1.985-.926-1.985-2.071 0-1.143.89-2.072 1.985-2.072h7.942c1.098 0 1.985.929 1.985 2.072-.001 1.145-.89 2.071-1.987 2.071z"/></svg>
